icons/4_Outdated/Firefox v1.svg

<svg xmlns="http://www.w3.org/2000/svg" viewBox="0 0 1024 1024">
   <circle cx="512" cy="512" r="512" style="fill:#ff9400"/>
   <path d="M764.1 489.5c-.7-4.6-1.5-7.5-1.5-7.5s-1.8 2.2-4.9 6.2c-.9-11.3-2.9-22.5-6-33.4-4-13.7-9.1-27-15.5-39.5-4-8.4-8.6-16.6-14.1-24.1-2.9-4.4-5.3-7.7-5.7-8.4-9.5-15.5-20.1-24.7-32.7-42.4-8-13.5-13.5-28.5-16.1-44-3.5 9.3-6.2 19-8 28.7-12.6-12.8-23.9-22.1-30.5-28.3-33.1-30.9-29.2-46.8-29.2-46.8s-61.9 68.9-35.1 140.7c9.3 24.3 25.2 45.7 46.2 61.4 25.8 21.2 53.7 38 68.3 81.1-11.7-22.8-29.6-41.5-51.5-54.6 6.6 15.7 9.9 32.3 9.7 49.3 0 64.5-52.4 116.9-117.1 116.9-8.6 0-17.5-.9-25.8-2.9-10.2-2-19.9-5.3-28.9-9.9-13.7-8.2-25.6-19-34.9-32v-.2c1.1.4 1.8.7 2 .7 4.9 1.8 9.7 3.1 14.8 4 19.9 4.2 40.4 1.8 58.8-6.8 18.6-10.4 29.8-17.9 38.9-15s15.9-5.7 9.7-14.8c-11-14.4-29.2-21.2-46.8-18.1-18.6 2.7-35.6 15.7-59.6 3.1-1.8-.9-3.1-1.8-4.6-2.7-1.5-1.1 5.3 1.3 3.5.2-5.3-2.7-10.4-5.5-15.2-9.1-.2-.2 3.8 1.1 3.3.9-6.2-4.2-11.7-9.7-15.9-16.1-4.2-7.7-4.6-17.2-1.1-25.4 2.4-4.2 5.7-7.3 9.9-9.3 3.1 1.5 5.1 2.7 5.1 2.7s-1.5-2.7-2.2-4c.2-.2.4 0 .9-.2 2.7 1.1 8.6 4.2 11.9 6.2 2.2 1.1 4 2.9 5.5 4.9 0 0 1.1-.4.2-2.9-1.1-2.9-3.1-5.3-5.7-6.8h.4c2.4 1.3 4.6 2.7 6.8 4.4 2-4.9 3.1-9.7 2.9-14.8.2-2.9-.2-5.7-1.1-8.2-.9-1.8.4-2.4 2-.7-.2-1.3-.7-2.7-1.3-4 0 0 .9-1.3 1.3-1.5 1.1-1.1 2.2-2.2 3.5-2.9 7.7-4.9 15.7-9.1 24.1-12.4 6.8-2.9 12.4-5.3 13.5-6 1.8-1.1 3.3-2.2 4.9-3.5 5.7-4.9 9.5-11.5 10.8-18.8.2-1.1.2-2 .2-2.9v-1.8c-.9-3.8-7.3-6.4-40.6-9.7-11.7-1.8-21.2-10.6-23.9-22.3v.2c-.4 1.1-.9 2.4-1.3 3.8.4-1.3.9-2.4 1.3-3.8v-.2c6.4-16.6 17.9-30.9 32.7-40.6.9-.7-3.3.2-2.4-.4 2.7-1.3 5.5-2.7 8.6-3.8 1.5-.4-6.4-3.5-13.5-2.9-4.2.2-8.4 1.3-12.4 2.9 1.8-1.3 6.6-3.1 5.5-3.1-9.1 1.5-17.7 4.9-25.4 9.5 0-.9.2-1.5.4-2.2-6.2 2.7-11.7 6.8-15.7 12.2v-2.9c-2.9 2.2-5.3 4.6-7.7 7.3h-.2c-18.3-7.1-38.2-8.8-57.7-4.9l-.2-.2h.2c-4-3.1-7.5-7.1-10.2-11.5l-.2.2-.4-.4c-1.3-1.8-2.4-4-3.8-6.4-1.1-1.5-2-3.5-3.1-5.5 0 0 0-.2-.2-.2s-.7 2-.9 1.3c-3.3-8.8-5.1-18.3-4.6-27.6h-.2c-5.5 3.8-9.7 9.1-11.7 15.5-1.1 2.2-1.8 3.3-2.4 4.6v-.7l.7-3.3c-.2.2-.2.4-.4.7-1.5 1.8-2.9 3.8-4 6-1.1 2-2 4.2-2.7 6.4v-1.1c0-.9.2-2.2 0-1.8l-.2.7c-7.1 15.7-11.7 32.5-13.3 49.7-.4 3.1-.4 6-.4 8.8v.4c-5.1 5.5-9.5 11.5-13.5 17.9-12.8 21.6-22.3 45.1-28.3 69.6 4.2-9.3 9.3-18.3 15.2-26.7-11.5 28.9-17.2 59.4-17.2 90.4 2-9.1 4.4-17.9 7.3-26.7-1.8 36.5 5.3 72.9 20.5 106.3 20.5 45.9 54.6 84.6 97.9 110.7 17.5 11.9 36.7 21.2 56.8 27.4 2.7.9 5.5 2 8.2 2.9-.9-.4-1.5-.9-2.4-1.1C470 770.2 495 774 520 774c88.6 0 117.7-33.8 120.6-37.1 4.2-4 8-8.6 10.4-14.1 1.8-.7 3.3-1.3 5.1-2.2l1.1-.4c1.3-.7 2-.9 2-.9 13.5-6.4 26.1-14.1 37.6-23.4 17.2-12.4 29.4-30.5 34.7-51 3.3-7.5 3.3-15.7.7-23.4 1.3-2.2 2.4-4.2 2.7-4.6 19-30.5 29.8-65.4 31.4-101.4v-3.1c-.3-7.7-.9-15.4-2.2-22.9z" style="fill:#fff"/>
</svg>

<svg width="1024" height="1024" viewBox="0 0 1024 1024" fill="none" xmlns="http://www.w3.org/2000/svg">
<g clip-path="url(#clip0_3_545)">
<path d="M512 1024C794.77 1024 1024 794.77 1024 512C1024 229.23 794.77 0 512 0C229.23 0 0 229.23 0 512C0 794.77 229.23 1024 512 1024Z" fill="#F8C18C"/>
<path d="M764.1 489.5C763.4 484.9 762.6 482 762.6 482C762.6 482 760.8 484.2 757.7 488.2C756.8 476.9 754.8 465.7 751.7 454.8C747.7 441.1 742.6 427.8 736.2 415.3C732.2 406.9 727.6 398.7 722.1 391.2C719.2 386.8 716.8 383.5 716.4 382.8C706.9 367.3 696.3 358.1 683.7 340.4C675.7 326.9 670.2 311.9 667.6 296.4C664.1 305.7 661.4 315.4 659.6 325.1C647 312.3 635.7 303 629.1 296.8C596 265.9 599.9 250 599.9 250C599.9 250 538 318.9 564.8 390.7C574.1 415 590 436.4 611 452.1C636.8 473.3 664.7 490.1 679.3 533.2C667.6 510.4 649.7 491.7 627.8 478.6C634.4 494.3 637.7 510.9 637.5 527.9C637.5 592.4 585.1 644.8 520.4 644.8C511.8 644.8 502.9 643.9 494.6 641.9C484.4 639.9 474.7 636.6 465.7 632C452 623.8 440.1 613 430.8 600V599.8C431.9 600.2 432.6 600.5 432.8 600.5C437.7 602.3 442.5 603.6 447.6 604.5C467.5 608.7 488 606.3 506.4 597.7C525 587.3 536.2 579.8 545.3 582.7C554.4 585.6 561.2 577 555 567.9C544 553.5 525.8 546.7 508.2 549.8C489.6 552.5 472.6 565.5 448.6 552.9C446.8 552 445.5 551.1 444 550.2C442.5 549.1 449.3 551.5 447.5 550.4C442.2 547.7 437.1 544.9 432.3 541.3C432.1 541.1 436.1 542.4 435.6 542.2C429.4 538 423.9 532.5 419.7 526.1C415.5 518.4 415.1 508.9 418.6 500.7C421 496.5 424.3 493.4 428.5 491.4C431.6 492.9 433.6 494.1 433.6 494.1C433.6 494.1 432.1 491.4 431.4 490.1C431.6 489.9 431.8 490.1 432.3 489.9C435 491 440.9 494.1 444.2 496.1C446.4 497.2 448.2 499 449.7 501C449.7 501 450.8 500.6 449.9 498.1C448.8 495.2 446.8 492.8 444.2 491.3H444.6C447 492.6 449.2 494 451.4 495.7C453.4 490.8 454.5 486 454.3 480.9C454.5 478 454.1 475.2 453.2 472.7C452.3 470.9 453.6 470.3 455.2 472C455 470.7 454.5 469.3 453.9 468C453.9 468 454.8 466.7 455.2 466.5C456.3 465.4 457.4 464.3 458.7 463.6C466.4 458.7 474.4 454.5 482.8 451.2C489.6 448.3 495.2 445.9 496.3 445.2C498.1 444.1 499.6 443 501.2 441.7C506.9 436.8 510.7 430.2 512 422.9C512.2 421.8 512.2 420.9 512.2 420V418.2C511.3 414.4 504.9 411.8 471.6 408.5C459.9 406.7 450.4 397.9 447.7 386.2V386.4C447.3 387.5 446.8 388.8 446.4 390.2C446.8 388.9 447.3 387.8 447.7 386.4V386.2C454.1 369.6 465.6 355.3 480.4 345.6C481.3 344.9 477.1 345.8 478 345.2C480.7 343.9 483.5 342.5 486.6 341.4C488.1 341 480.2 337.9 473.1 338.5C468.9 338.7 464.7 339.8 460.7 341.4C462.5 340.1 467.3 338.3 466.2 338.3C457.1 339.8 448.5 343.2 440.8 347.8C440.8 346.9 441 346.3 441.2 345.6C435 348.3 429.5 352.4 425.5 357.8V354.9C422.6 357.1 420.2 359.5 417.8 362.2H417.6C399.3 355.1 379.4 353.4 359.9 357.3L359.7 357.1H359.9C355.9 354 352.4 350 349.7 345.6L349.5 345.8L349.1 345.4C347.8 343.6 346.7 341.4 345.3 339C344.2 337.5 343.3 335.5 342.2 333.5C342.2 333.5 342.2 333.3 342 333.3C341.8 333.3 341.3 335.3 341.1 334.6C337.8 325.8 336 316.3 336.5 307H336.3C330.8 310.8 326.6 316.1 324.6 322.5C323.5 324.7 322.8 325.8 322.2 327.1V326.4L322.9 323.1C322.7 323.3 322.7 323.5 322.5 323.8C321 325.6 319.6 327.6 318.5 329.8C317.4 331.8 316.5 334 315.8 336.2V335.1C315.8 334.2 316 332.9 315.8 333.3L315.6 334C308.5 349.7 303.9 366.5 302.3 383.7C301.9 386.8 301.9 389.7 301.9 392.5V392.9C296.8 398.4 292.4 404.4 288.4 410.8C275.6 432.4 266.1 455.9 260.1 480.4C264.3 471.1 269.4 462.1 275.3 453.7C263.8 482.6 258.1 513.1 258.1 544.1C260.1 535 262.5 526.2 265.4 517.4C263.6 553.9 270.7 590.3 285.9 623.7C306.4 669.6 340.5 708.3 383.8 734.4C401.3 746.3 420.5 755.6 440.6 761.8C443.3 762.7 446.1 763.8 448.8 764.7C447.9 764.3 447.3 763.8 446.4 763.6C470 770.2 495 774 520 774C608.6 774 637.7 740.2 640.6 736.9C644.8 732.9 648.6 728.3 651 722.8C652.8 722.1 654.3 721.5 656.1 720.6L657.2 720.2C658.5 719.5 659.2 719.3 659.2 719.3C672.7 712.9 685.3 705.2 696.8 695.9C714 683.5 726.2 665.4 731.5 644.9C734.8 637.4 734.8 629.2 732.2 621.5C733.5 619.3 734.6 617.3 734.9 616.9C753.9 586.4 764.7 551.5 766.3 515.5V512.4C766 504.7 765.4 497 764.1 489.5Z" fill="white"/>
</g>
<defs>
<clipPath id="clip0_3_545">
<rect width="1024" height="1024" fill="white"/>
</clipPath>
</defs>
</svg>
